X:1
T:G Major Stephen Jenks, 1818
T:Isaac Watts, 1709 (Hymn 23, Book 2)      88. 88. (L. M.)
T:Pleasure
T:Transcribed from Jenks' The Harmony of Zion, 1818.
%%score [ 1 2 3 4 ]
L:1/8
Q:1/4=120
M:4/4
K:G
V:1 treble nm="Tr." snm="Tr."
V:2 treble nm="C." snm="C."
V:3 treble-8 nm="T." snm="T."
V:4 bass nm="B." snm="B."
V:1
"^3.    O what  amazing  joys  they   feel  While to their golden harps they sing, And sit on every heav'nly  hill,     And  spread the tri–umphs""^2.    O  for  a  sight,  a  pleasing    sight   Of our Almighty Father's throne! There sits our Savior crowned with light,  Clothed in a bo – dy""^1. Descend from heav'n, immortal Dove, Stoop down and take us on thy wings, And mount and bear us far above The reach of these in  –" B4 d2 d2 | %1
 d2 B2 G2 A2 | B6 D2 | E2 F2 G2 A2 | B2 d2 d4 | B4 B2 B2 | G2 G2 G2 A2 | B6 B2 | B3 B Bc de | %9
"^– fe – rior things:                                                                                        Up where e – ter – nal a  –   ges       roll;                Where  solid     pleasures""^l ike   our   own.                                                                                         And  thrones  and  powers before him fall;          The God shines gracious""^of    their  King!                                                                                        That  I  shall  l mount to dwell  a   –  bove,              And stand and bow a –" d4 d4 | %10
 B8 | z8 | z8 | z8 | B4 B2 B2 | B2 B2 BA GF | G8 | z4 d4 | B2 B2 B2 AG | %19
"^ne  –  ver    die, ________    And      fruits im – mor–tal       feast  the     soul. _______  And       fruits  im –  mor – tal       feast   the      soul.""^through the man, ______    And      sheds sweet glo–ries     on  them    all. __________  And      sheds  sweet  glo – ries      on     them     all.""^–mong them there, ____    And      view  thy   face,  and    sing,   and    love? _______ And       view   thy     face,   and     sing,   and      love?" AB AG E4- | %20
 E4 B4 | B2 Bc d2 dc | B2 B2 A4- | A4 B4 | GA GF G2 G2 | G4 F4 | G8 |] %27
V:2
 D4 G2 G2 | G2 G2 E2 D2 | D6 D2 | E2 F2 G2 A2 | G2 F2 G4 | G4 D2 D2 | E2 G2 G2 D2 | D6 G2 | %8
 G3 G G2 G2 | G4 F4 | G8 | z8 | z8 | z8 | G4 G2 G2 | F2 F2 E2 D2 | D8 | z4 B,4 | D2 D2 D2 CB, | %19
 E2 E2 E4- | E4 D4 | G2 G2 G2 G2 | G2 G2 F4- | F4 G4 | ED EF G2 FE | D4 D4 | D8 |] %27
V:3
"^1. Descend from heav'n, immortal Dove, Stoop down and take us on thy wings, And mount and bear us far above The reach of these in  –""^2.    O  for  a  sight,  a  pleasing    sight   Of our Almighty Father's throne! There sits our Savior crowned with light,  Clothed in a bo – dy""^3.    O what  amazing  joys  they   feel  While to their golden harps they sing, And sit on every heav'nly  hill,     And  spread the tri–umphs" d4 B2 G2 | %1
 B2 d2 g2 f2 | g6 D2 | E2 F2 G2 A2 | G2 A2 B4 | d4 g2 f2 | e2 d2 e2 f2 | g6 e2 | d3 d dc BA | %9
"^– fe– rior things:             Beyond, beyond this    lo –  wer  sky,       Up  where e – ter – nal   a  –  ges     roll;""^like  our  own.                A–do–ring saints around him stand,    And thrones and powers before him fall;""^of   their King!             When shall the day, dear Lord,  appear   That  I  shall  l mount to dwell   a  –  bove," B4 A4 | %10
 G8 | z4 B4 | B2 B2 B2 c2 | BA GF E4 | d4 d2 d2 | d2 d2 dc BA | B8 | z8 | z8 | z8 | %20
 z4"^And      fruits im – mor–tal       feast  the     soul. _______  And       fruits  im –  mor – tal       feast   the      soul.""^And      sheds sweet glo–ries     on  them    all. __________  And      sheds  sweet  glo – ries      on     them     all.""^And      view  thy   face,  and    sing,   and    love? _______ And       view   thy     face,   and     sing,   and      love?" G4 | %21
 G2 GA B2 Bc | d2 de d4- | d4 d4 | gf ed e2 dc | B4 A4 | G8 |] %27
V:4
 G,4 G,2 G,2 | G,2 G,2 G,2 D,2 | G,6 D,2 | E,2 F,2 G,2 A,2 | G,2 D,2 G,4 | G,4 G,2 B,2 | %6
 C2 B,2 C2 D2 | G,6 G,2 | G,3 G, G,A, B,C | D4 D,4 | G,8 | z4 E,4 | E,2 F,2 G,2 A,2 | %13
 B,2 B,,2 E,4 | G,4 G,2 G,2 | B,,2 B,,2 A,,2 D,2 | G,8 | z8 | z8 | z8 | %20
 z4"^_________________________________________________________\nEdited by B. C. Johnston, 2016\nMeasure 7, Counter:  EFGD changed to EGGD." G,4 | %21
 G,2 G,2 G,2 G,2 | G,2 G,2 D,4- | D,4 G,4 | G,A, B,2 C2 B,C | D4 D,4 | G,8 |] %27

